public/support/live-chat.svg

<svg width="44" height="44" viewBox="0 0 44 44" fill="none" xmlns="http://www.w3.org/2000/svg">
<path d="M37.125 14.4375H30.9375V8.25C30.9375 7.70299 30.7202 7.17839 30.3334 6.79159C29.9466 6.4048 29.422 6.1875 28.875 6.1875H6.875C6.32799 6.1875 5.80339 6.4048 5.41659 6.79159C5.0298 7.17839 4.8125 7.70299 4.8125 8.25V30.25C4.8125 30.4323 4.88493 30.6072 5.01386 30.7361C5.1428 30.8651 5.31766 30.9375 5.5 30.9375C5.65705 30.9373 5.8093 30.8833 5.93141 30.7845L12.5469 25.4375H13.0625V31.625C13.0625 32.172 13.2798 32.6966 13.6666 33.0834C14.0534 33.4702 14.578 33.6875 15.125 33.6875H31.4531L38.0686 39.0345C38.1907 39.1333 38.3429 39.1873 38.5 39.1875C38.6823 39.1875 38.8572 39.1151 38.9861 38.9861C39.1151 38.8572 39.1875 38.6823 39.1875 38.5V16.5C39.1875 15.953 38.9702 15.4284 38.5834 15.0416C38.1966 14.6548 37.672 14.4375 37.125 14.4375ZM12.3028 24.0625C12.1458 24.0627 11.9935 24.1167 11.8714 24.2155L6.1875 28.8097V8.25C6.1875 8.06766 6.25993 7.8928 6.38886 7.76386C6.5178 7.63493 6.69266 7.5625 6.875 7.5625H28.875C29.0573 7.5625 29.2322 7.63493 29.3611 7.76386C29.4901 7.8928 29.5625 8.06766 29.5625 8.25V23.375C29.5625 23.5573 29.4901 23.7322 29.3611 23.8611C29.2322 23.9901 29.0573 24.0625 28.875 24.0625H12.3028ZM37.8125 37.0597L32.1286 32.4655C32.0065 32.3667 31.8542 32.3127 31.6972 32.3125H15.125C14.9427 32.3125 14.7678 32.2401 14.6389 32.1111C14.5099 31.9822 14.4375 31.8073 14.4375 31.625V25.4375H28.875C29.422 25.4375 29.9466 25.2202 30.3334 24.8334C30.7202 24.4466 30.9375 23.922 30.9375 23.375V15.8125H37.125C37.3073 15.8125 37.4822 15.8849 37.6111 16.0139C37.7401 16.1428 37.8125 16.3177 37.8125 16.5V37.0597Z" fill="white"/>
</svg>

<svg xmlns="http://www.w3.org/2000/svg" width="44" height="44" fill="none"><path fill="#fff" d="M37.13 14.44h-6.2V8.25a2.06 2.06 0 0 0-2.05-2.06h-22A2.06 2.06 0 0 0 4.8 8.25v22a.69.69 0 0 0 1.12.53l6.62-5.34h.51v6.18a2.06 2.06 0 0 0 2.06 2.07h16.33l6.62 5.34a.69.69 0 0 0 1.12-.53v-22a2.06 2.06 0 0 0-2.06-2.06ZM12.3 24.06c-.15 0-.3.06-.43.16L6.2 28.8V8.25a.69.69 0 0 1 .68-.69h22a.69.69 0 0 1 .7.69v15.13a.69.69 0 0 1-.7.68H12.3Zm25.51 13-5.68-4.6a.69.69 0 0 0-.43-.15H15.13a.69.69 0 0 1-.7-.69v-6.18h14.45a2.06 2.06 0 0 0 2.06-2.07v-7.56h6.18a.69.69 0 0 1 .7.69v20.56Z"/></svg>
